icons/op-movie-24.svg

<svg xmlns="http://www.w3.org/2000/svg" width="24" height="24" viewBox="0 0 24 24"><path d="M4 4v16h16V4H4Zm2 15H5v-1h1v1Zm0-3H5v-1h1v1Zm0-3H5v-1h1v1Zm0-3H5V9h1v1Zm0-3H5V6h1v1Zm11 11H7v-5h10v5Zm0-7H7V6h10v5Zm2 8h-1v-1h1v1Zm0-3h-1v-1h1v1Zm0-3h-1v-1h1v1Zm0-3h-1V9h1v1Zm0-3h-1V6h1v1Z"/></svg>

<svg width="24" height="24" viewBox="0 0 24 24" fill="none" xmlns="http://www.w3.org/2000/svg">
<path d="M4 4V20H20V4H4ZM6 19H5V18H6V19ZM6 16H5V15H6V16ZM6 13H5V12H6V13ZM6 10H5V9H6V10ZM6 7H5V6H6V7ZM17 18H7V13H17V18ZM17 11H7V6H17V11ZM19 19H18V18H19V19ZM19 16H18V15H19V16ZM19 13H18V12H19V13ZM19 10H18V9H19V10ZM19 7H18V6H19V7Z" fill="black"/>
</svg>
